style-guide/assets/xd-icons-comment-small.svg

<svg viewBox="0 0 18 18" xmlns="http://www.w3.org/2000/svg" xmlns:xlink="http://www.w3.org/1999/xlink">
  <path d="M7 3C4.794 3 3 4.795 3 7c0 1.062.418 2.064 1.177 2.822A3.966 3.966 0 0 0 7 11a1 1 0 0 1 1 1v1.586l2.293-2.293A.997.997 0 0 1 11 11c2.206 0 4-1.795 4-4a3.97 3.97 0 0 0-1.177-2.823A3.97 3.97 0 0 0 11 3H7zm0 14a1 1 0 0 1-1-1v-3.084a5.96 5.96 0 0 1-3.237-1.68A5.951 5.951 0 0 1 1 7c0-3.309 2.691-6 6-6h4c1.595 0 3.1.626 4.237 1.762A5.96 5.96 0 0 1 17 7a6.007 6.007 0 0 1-5.571 5.984l-3.722 3.723A1 1 0 0 1 7 17z"/>
</svg>

<?xml version="1.0" encoding="UTF-8"?>
<svg width="18px" height="18px" viewBox="0 0 18 18" version="1.1" xmlns="http://www.w3.org/2000/svg" xmlns:xlink="http://www.w3.org/1999/xlink">
    <!-- Generator: Sketch 51.3 (57544) - http://www.bohemiancoding.com/sketch -->
    <title>comment</title>
    <desc>Created with Sketch.</desc>
    <defs>
        <path d="M7,3 C4.794,3 3,4.795 3,7 C3,8.062 3.418,9.064 4.177,9.822 C4.936,10.582 5.938,11 7,11 C7.552,11 8,11.447 8,12 L8,13.586 L10.293,11.293 C10.48,11.105 10.735,11 11,11 C13.206,11 15,9.205 15,7 C15,5.939 14.582,4.936 13.823,4.177 C13.064,3.418 12.061,3 11,3 L7,3 Z M7,17 C6.871,17 6.741,16.975 6.617,16.924 C6.244,16.77 6,16.404 6,16 L6,12.916 C4.783,12.711 3.659,12.133 2.763,11.236 C1.626,10.1 1,8.596 1,7 C1,3.691 3.691,1 7,1 L11,1 C12.595,1 14.1,1.626 15.237,2.762 C16.374,3.9 17,5.404 17,7 C17,10.164 14.538,12.764 11.429,12.984 L7.707,16.707 C7.516,16.898 7.26,17 7,17 Z" id="path-1"></path>
    </defs>
    <g id="comment" stroke="none" stroke-width="1" fill="none" fill-rule="evenodd">
        <mask id="mask-2" fill="white">
            <use xlink:href="#path-1"></use>
        </mask>
        <use id="icons/18px/Message" fill="#000000" xlink:href="#path-1"></use>
    </g>
</svg>
